packages/crayons-icon/icons/Header.svg

<?xml version="1.0" encoding="UTF-8"?>
<svg width="14px" height="17px" viewBox="0 0 14 17" version="1.1" xmlns="http://www.w3.org/2000/svg" xmlns:xlink="http://www.w3.org/1999/xlink">
    <!-- Generator: Sketch 52.6 (67491) - http://www.bohemiancoding.com/sketch -->
    <title>icon/Header</title>
    <desc>Created with Sketch.</desc>
    <g id="Icons-✅" stroke="none" stroke-width="1" fill="none" fill-rule="evenodd">
        <g id="Icons" transform="translate(-655.000000, -1860.000000)" fill="currentColor">
            <g id="icon/Header" transform="translate(655.000000, 1861.000000)">
                <g id="Header" transform="translate(0.000000, -1.000000)">
                    <path d="M13.1,15.59 L12.5,15.59 L12.5,2.39 L13.1,2.39 C13.4865993,2.38999999 13.8,2.07659932 13.8,1.69 C13.8,1.30340068 13.4865993,0.990000006 13.1,0.99 L10.5,0.99 C10.1134007,0.990000006 9.80000001,1.30340068 9.80000001,1.69 C9.80000001,2.07659932 10.1134007,2.38999999 10.5,2.39 L11.1,2.39 L11.1,8.29 L2.9,8.29 L2.9,2.39 L3.5,2.39 C3.85176597,2.34772914 4.11648353,2.04929666 4.11648353,1.695 C4.11648353,1.34070334 3.85176597,1.04227086 3.5,1 L0.9,1 C0.513400675,1 0.2,1.31340068 0.2,1.7 C0.2,2.08659932 0.513400675,2.4 0.9,2.4 L1.5,2.4 L1.5,15.6 L0.9,15.6 C0.513400675,15.6 0.2,15.9134007 0.2,16.3 C0.2,16.6865993 0.513400675,17 0.9,17 L3.5,17 C3.88659932,17 4.2,16.6865993 4.2,16.3 C4.2,15.9134007 3.88659932,15.6 3.5,15.6 L2.9,15.6 L2.9,9.69 L11.1,9.69 L11.1,15.59 L10.5,15.59 C10.1134007,15.59 9.8,15.9034007 9.8,16.29 C9.8,16.6765993 10.1134007,16.99 10.5,16.99 L13.1,16.99 C13.4865993,16.99 13.8,16.6765993 13.8,16.29 C13.8,15.9034007 13.4865993,15.59 13.1,15.59 Z" id="Path"></path>
                </g>
            </g>
        </g>
    </g>
</svg>

<svg viewBox="0 0 14 17"><path d="M13.1 15.59h-.6V2.39h.6a.7.7 0 0 0 0-1.4h-2.6a.7.7 0 0 0 0 1.4h.6v5.9H2.9v-5.9h.6A.7.7 0 0 0 3.5 1H.9a.7.7 0 0 0 0 1.4h.6v13.2H.9a.7.7 0 0 0 0 1.4h2.6a.7.7 0 0 0 0-1.4h-.6V9.69h8.2v5.9h-.6a.7.7 0 0 0 0 1.4h2.6a.7.7 0 0 0 0-1.4z" fill="currentColor" fill-rule="evenodd"/></svg>
